Adwaita++/apps/16/rinomina.svg

<svg viewBox="0 0 16 16" xmlns="http://www.w3.org/2000/svg">
  <path d="m7.9493736 14.390074c-.2820285-.15985-.3510387-.286615-.352824-.648011-.00216-.450918.2802596-.652859 1.0462805-.747852.7070963-.08779.8047717-.1248 1.1543691-.439617l.2278178-.205052v-4.26299c0-3.7772856-.01866-4.289818-.1651217-4.49867-.2197606-.3138021-.7355097-.5181009-1.3075634-.5181009-.3832674 0-.5208224-.0540471-.7696861-.3029926-.230864-.2309295-.2864511-.357433-.233353-.5315637.0984639-.3229737.3239561-.5545583.6100692-.6263921.3955222-.0992505 1.5650665.1336443 2.081274.4147559l.476403.2594271.546183-.2672885c.608105-.2974241 1.680127-.5068657 2.11094-.4122664.301945.066166.599625.4312322.599625.7350108 0 .1028537-.08912.282684-.198043.3995243-.199614.214224-.37193.2672887-1.237657.3811156-.260606.034393-.590928.1542806-.734068.266961-.237775.1870366-.260246.2695816-.260246.9567687v.7520113h1.309026c1.055024 0 1.3399.02948 1.468133.1591939.238758.2387909.238758 5.3155366 0 5.5542946-.128273.128404-.413499.159194-1.472391.159194h-1.313284l.02948.774186c.02653.691675.0567.794431.284125.963844.139998.104165.50451.215207.810005.246653.776575.0796 1.076167.21488 1.214035.547713.162829.393137-.04501.816933-.456091.929909-.4363.119886-1.598792-.08123-2.184351-.377905l-.498791-.252877-.494923.250911c-.2722018.137902-.7847903.297752-1.1390686.355304-.7982099.129386-.8979356.128403-1.1504021-.01638zm5.5181604-6.3590434v-2.0250058h-.961879-.961882v2.0250058 2.0250044h.961882.961879zm-11.788466 2.7771464c-.2387574-.23879-.2387574-5.3155362 0-5.5542944.1386565-.1385577.6202146-.1591939 3.7462729-.1591939h3.5871665v.4556353.4556353h-3.2400227-3.2400189v2.0250055 2.0250052h3.2400189 3.2400227v.455636.455635h-3.5871665c-3.1260583 0-3.6076164-.01966-3.7462729-.159195zm1.8659042-2.7771464v-1.0125195h2.2275125 2.2275163v1.0125195 1.0124867h-2.2275163-2.2275125z" fill="#474747"/>
</svg>

<svg xmlns="http://www.w3.org/2000/svg" version="1.1" viewBox="0 0 16 16">
 <defs>
  <style id="current-color-scheme" type="text/css">
   .ColorScheme-Text { color:#474747; }
  </style>
 </defs>
 <path style="fill:currentColor" class="ColorScheme-Text" d="m 7.9493736,14.390074 c -0.2820285,-0.15985 -0.3510387,-0.286615 -0.352824,-0.648011 -0.00216,-0.450918 0.2802596,-0.652859 1.0462805,-0.747852 0.7070963,-0.08779 0.8047717,-0.1248 1.1543691,-0.439617 l 0.2278178,-0.205052 v -4.26299 c 0,-3.7772856 -0.01866,-4.289818 -0.1651217,-4.49867 C 9.6401347,3.2740799 9.1243856,3.0697811 8.5523319,3.0697811 8.1690645,3.0697811 8.0315095,3.015734 7.7826458,2.7667885 7.5517818,2.535859 7.4961947,2.4093555 7.5492928,2.2352248 7.6477567,1.9122511 7.8732489,1.6806665 8.159362,1.6088327 8.5548842,1.5095822 9.7244285,1.742477 10.240636,2.0235886 l 0.476403,0.2594271 0.546183,-0.2672885 c 0.608105,-0.2974241 1.680127,-0.5068657 2.11094,-0.4122664 0.301945,0.066166 0.599625,0.4312322 0.599625,0.7350108 0,0.1028537 -0.08912,0.282684 -0.198043,0.3995243 -0.199614,0.214224 -0.37193,0.2672887 -1.237657,0.3811156 -0.260606,0.034393 -0.590928,0.1542806 -0.734068,0.266961 -0.237775,0.1870366 -0.260246,0.2695816 -0.260246,0.9567687 v 0.7520113 h 1.309026 c 1.055024,0 1.3399,0.02948 1.468133,0.1591939 0.238758,0.2387909 0.238758,5.3155366 0,5.5542946 -0.128273,0.128404 -0.413499,0.159194 -1.472391,0.159194 h -1.313284 l 0.02948,0.774186 c 0.02653,0.691675 0.0567,0.794431 0.284125,0.963844 0.139998,0.104165 0.50451,0.215207 0.810005,0.246653 0.776575,0.0796 1.076167,0.21488 1.214035,0.547713 0.162829,0.393137 -0.04501,0.816933 -0.456091,0.929909 -0.4363,0.119886 -1.598792,-0.08123 -2.184351,-0.377905 l -0.498791,-0.252877 -0.494923,0.250911 C 9.9665442,14.187871 9.4539557,14.347721 9.0996774,14.405273 8.3014675,14.534659 8.2017418,14.533676 7.9492753,14.388893 Z M 13.467534,8.0310306 V 6.0060248 h -0.961879 -0.961882 v 2.0250058 2.0250044 h 0.961882 0.961879 z M 1.679068,10.808177 c -0.2387574,-0.23879 -0.2387574,-5.3155362 0,-5.5542944 C 1.8177245,5.1153249 2.2992826,5.0946887 5.4253409,5.0946887 H 9.0125074 V 5.550324 6.0059593 H 5.7724847 2.5324658 V 8.0309648 10.05597 h 3.2400189 3.2400227 v 0.455636 0.455635 H 5.4253409 c -3.1260583,0 -3.6076164,-0.01966 -3.7462729,-0.159195 z M 3.5449722,8.0310306 V 7.0185111 H 5.7724847 8.000001 V 8.0310306 9.0435173 H 5.7724847 3.5449722 Z"/>
</svg>
